docs/demo/assets/img/zalando-logo.svg

<svg viewBox="0 0 150 30" xmlns="http://www.w3.org/2000/svg"><g fill="none" fill-rule="evenodd"><path d="m65.43 7.443c-1.081-.6-2.689-.893-4.916-.893-3.047.001-5.875.64-6.945 1.042-.241.078-.501.289-.505.648v.08l.3 1.529.007.029c.094.311.352.452.584.452h.002c.075-.004.134-.019.188-.033l.508-.12c1.327-.334 3.333-.84 5.573-.84 1.358 0 2.272.118 2.884.379.993.38 1 1.029 1.01 2.102v1.605c-.114-.002-.306-.004-.602-.004-1.097 0-3.254.052-5.375.395-3.238.502-5.916 1.284-5.899 5.787.001 5.716 5.254 5.726 7.778 5.731 1.713-.002 3.294-.258 4.327-.472 2.355-.553 2.958-1.307 2.926-3.669v-9.505c.001-1.451.006-3.255-1.846-4.243m-1.293 14.682c-1.254.41-2.626.617-4.079.617v.133l-.003-.133c-2.322-.018-4.589-.287-4.592-3.275.015-2.378 1.272-2.659 2.863-3.02l.11-.025c1.415-.306 4.969-.363 5.701-.371v6.072m29.391-10.44v9.505c.032 2.362-.57 3.116-2.927 3.669-1.031.214-2.612.47-4.325.472-2.524-.006-7.776-.016-7.778-5.731-.018-4.502 2.661-5.285 5.899-5.787 2.121-.343 4.279-.395 5.376-.395.296 0 .487.002.603.004v-1.605c-.01-1.073-.018-1.721-1.01-2.102-.612-.261-1.527-.379-2.886-.379-2.239 0-4.246.506-5.572.84l-.507.12c-.054.014-.113.029-.188.033h-.002c-.233 0-.489-.141-.584-.452l-.008-.029-.3-1.529-.002-.08c.006-.359.264-.57.505-.648 1.072-.402 3.897-1.041 6.945-1.042 2.228 0 3.836.293 4.917.893 1.852.989 1.848 2.793 1.844 4.243m-3.136 4.368c-.734.008-4.285.065-5.701.371l-.111.025c-1.59.358-2.848.64-2.863 3.02.004 2.988 2.271 3.258 4.595 3.275l.002.133v-.133c1.451 0 2.825-.207 4.079-.617v-6.072m50.695-9.503c-7.315.01-7.935 4.861-7.942 9.408.008 4.529.627 9.361 7.942 9.373 7.31-.012 7.932-4.832 7.943-9.375-.008-4.754-.628-9.396-7.943-9.406m0 16.13c-4.436-.021-4.659-2.319-4.689-6.72.03-4.424.252-6.735 4.688-6.754 4.438.019 4.66 2.33 4.691 6.752-.032 4.402-.254 6.701-4.69 6.722m-13.13 1.985l-.19.048c-1.023.262-2.424.62-4.88.62h-.006c-6.771-.012-8.098-3.458-8.105-9.408.008-6.823 2.15-9.364 7.907-9.373 2.03 0 3.431.265 4.435.51l-.006-5.498c-.008-.242.099-.557.663-.665l1.8-.463h.098c.414.01.559.381.561.696v20.655c.026 1.304-.127 2.423-2.277 2.878m-.844-14.958c-.601-.153-2.277-.535-4.163-.535-3.466.033-4.921.982-4.957 6.788.042 6.375 1.921 6.72 4.987 6.751l.002.135v-.135c1.908 0 3.544-.402 4.129-.562l.002-12.442m-16.16 15.194h-1.607c-.432 0-.757-.329-.757-.763v-12.253c-.029-2.072-.644-2.649-2.855-2.679-2.501 0-5.03.633-5.868.862v14.07c0 .441-.305.763-.723.763h-1.642c-.432 0-.756-.329-.756-.763v-13.744c-.024-1.271.093-2.15 1.887-2.737 1.717-.598 5-1.105 7.171-1.106 4.135.004 5.899 1.511 5.905 5.04v12.551c0 .433-.324.762-.755.762m-36.422.332h.002c.924-.02 1.606-.203 1.876-.507.093-.106.138-.231.126-.354-.006-.101-.006-.101-.259-1.299l-.006-.029c-.056-.313-.277-.456-.46-.456l-.027.002c0 0-.23-.01-.46-.01h-.002c-.658-.021-1.205-.119-1.215-1.091v-20.356c-.002-.339-.204-.687-.593-.696l-.115.001-1.802.465c-.306.032-.626.253-.612.662v19.99c.003 2.368 1.263 3.675 3.545 3.679h.002m-25.437-.333h-12.904c-.431 0-.756-.329-.757-.763v-1.59c-.008-.391.115-.562.354-.861l10.27-12.05h-10.06c-.431-.001-.755-.331-.756-.764v-1.126c.001-.435.326-.764.756-.764h13.04c.431 0 .755.329.756.764v1.623c.006.293-.094.542-.327.803l-10.296 12.08h9.932c.431 0 .755.327.757.763v1.127c-.002.433-.326.762-.757.762" fill="#1d1d1b"/><path d="m6.01 29.949c-1.095 0-1.703-.258-2.027-.447-.451-.262-1.28-.928-2.023-2.901-1.192-3.165-1.896-7.03-1.928-11.566v-.016c.032-4.539.736-8.402 1.928-11.565.743-1.974 1.572-2.641 2.023-2.902.324-.19.931-.448 2.025-.448.417 0 .906.039 1.477.131 3.31.541 6.976 1.856 10.886 4.099l.014.007c3.879 2.297 6.841 4.844 8.96 7.467 1.322 1.638 1.479 2.694 1.479 3.219 0 .523-.157 1.583-1.479 3.218-2.119 2.624-5.081 5.171-8.96 7.468l-.014.008c-3.91 2.242-7.576 3.557-10.886 4.098-.571.094-1.059.13-1.475.13" fill="#ff6900"/></g></svg>

<?xml version="1.0" encoding="UTF-8"?>
<svg width="29px" height="30px" viewBox="0 0 29 30" version="1.1" xmlns="http://www.w3.org/2000/svg" xmlns:xlink="http://www.w3.org/1999/xlink">
    <!-- Generator: Sketch 44.1 (41455) - http://www.bohemiancoding.com/sketch -->
    <title>zalando-logo</title>
    <desc>Created with Sketch.</desc>
    <defs></defs>
    <g id="Page-1" stroke="none" stroke-width="1" fill="none" fill-rule="evenodd">
        <g id="zalando-logo" fill-rule="nonzero" fill="#FF6900">
            <path d="M6.01,29.949 C4.915,29.949 4.307,29.691 3.983,29.502 C3.532,29.24 2.703,28.574 1.96,26.601 C0.768,23.436 0.064,19.571 0.032,15.035 L0.032,15.019 C0.064,10.48 0.768,6.617 1.96,3.454 C2.703,1.48 3.532,0.813 3.983,0.552 C4.307,0.362 4.914,0.104 6.008,0.104 C6.425,0.104 6.914,0.143 7.485,0.235 C10.795,0.776 14.461,2.091 18.371,4.334 L18.385,4.341 C22.264,6.638 25.226,9.185 27.345,11.808 C28.667,13.446 28.824,14.502 28.824,15.027 C28.824,15.55 28.667,16.61 27.345,18.245 C25.226,20.869 22.264,23.416 18.385,25.713 L18.371,25.721 C14.461,27.963 10.795,29.278 7.485,29.819 C6.914,29.913 6.426,29.949 6.01,29.949" id="Shape"></path>
        </g>
    </g>
</svg>
